X:139 
T:McDonagh's Reel 1 
B:CRE3.113 (RÃÂÃÂÃÂÃÂ­l Mhic Dhonncha 1)
F:file ID: cre.3/139mcdon1
R:reel
L:1/8
Q:180
M:C
K:D
defd A3d|B/c/d ef gfef|de f/e/d A3B|c/B/A GE EDD2:|
A/B/c fd Adfd|Acec fcec|A2fd A/B/c fd|efge fdd2|
A/B/c fd A/B/c fd|A/B/c ef g2fe|defg a3f|gfeg fdd2||

%%%

